wallet-travel.svg

<svg fill="currentColor" viewBox="0 0 24 24"><path d="M20 14H4V8h3v2h2V8h6v2h2V8h3m0 11H4v-2h16M9 4h6v2H9m11 0h-3V4c0-1.11-.89-2-2-2H9c-1.11 0-2 .89-2 2v2H4c-1.11 0-2 .89-2 2v11c0 1.11.89 2 2 2h16c1.11 0 2-.89 2-2V8c0-1.11-.89-2-2-2"/></svg>

<svg  viewBox="0 0 24 24" fill="currentColor"><path  d="M20,14H4V8H7V10H9V8H15V10H17V8H20M20,19H4V17H20M9,4H15V6H9M20,6H17V4C17,2.89 16.11,2 15,2H9C7.89,2 7,2.89 7,4V6H4C2.89,6 2,6.89 2,8V19C2,20.11 2.89,21 4,21H20C21.11,21 22,20.11 22,19V8C22,6.89 21.11,6 20,6Z"/></svg>
